assets/img/braze_icons/arrow-block-down.svg

<svg fill="none" height="24" viewBox="0 0 24 24" width="24" xmlns="http://www.w3.org/2000/svg"><path clip-rule="evenodd" d="m9.77689 2.00001c1.48211.00056 2.96421.00056 4.44631 0 .1191-.00005.2613-.0001.3867.01014.1452.01186.3532.0423.5711.15335.2823.14381.5117.37328.6555.65553.1111.21794.1415.42593.1534.57115.0102.12532.0102.26759.0101.3867v.02313 9.19999h3c.4045 0 .7691.2437.9239.6173.1548.3737.0692.8038-.2168 1.0898l-7 7c-.3905.3905-1.0237.3905-1.4142 0l-6.99998-7c-.286-.286-.37155-.7161-.21677-1.0898.15478-.3736.51942-.6173.92388-.6173h3v-9.19999c0-.0076 0-.01532-.00001-.02314-.00004-.11911-.0001-.26137.01014-.38669.01187-.14522.04231-.35321.15336-.57115.14381-.28225.37328-.51172.65552-.65553.21795-.11105.42594-.14149.57116-.15335.12532-.01024.26757-.01019.38669-.01014z" fill="#801ed7" fill-rule="evenodd"/></svg>

<svg width="24" height="24" viewBox="0 0 24 24" fill="none" xmlns="http://www.w3.org/2000/svg">
<path fill-rule="evenodd" clip-rule="evenodd" d="M9.77689 2.00001C11.259 2.00057 12.7411 2.00057 14.2232 2.00001C14.3423 1.99996 14.4845 1.99991 14.6099 2.01015C14.7551 2.02201 14.9631 2.05245 15.181 2.1635C15.4633 2.30731 15.6927 2.53678 15.8365 2.81903C15.9476 3.03697 15.978 3.24496 15.9899 3.39018C16.0001 3.5155 16.0001 3.65777 16 3.77688C16 3.7847 16 3.79241 16 3.80001V13H19C19.4045 13 19.7691 13.2437 19.9239 13.6173C20.0787 13.991 19.9931 14.4211 19.7071 14.7071L12.7071 21.7071C12.3166 22.0976 11.6834 22.0976 11.2929 21.7071L4.29292 14.7071C4.00692 14.4211 3.92137 13.991 4.07615 13.6173C4.23093 13.2437 4.59557 13 5.00003 13H8.00003V3.80001C8.00003 3.79241 8.00003 3.78469 8.00002 3.77687C7.99998 3.65776 7.99992 3.5155 8.01016 3.39018C8.02203 3.24496 8.05247 3.03697 8.16352 2.81903C8.30733 2.53678 8.5368 2.30731 8.81904 2.1635C9.03699 2.05245 9.24498 2.02201 9.3902 2.01015C9.51552 1.99991 9.65777 1.99996 9.77689 2.00001Z" fill="#801ED7"/>
</svg>
